src/images/inline/restaurante.svg

<svg width="15px" height="20px" viewBox="0 0 15 20" version="1.1" xmlns="http://www.w3.org/2000/svg" xmlns:xlink="http://www.w3.org/1999/xlink">
    <g id="Symbols" stroke="none" stroke-width="1" fill="none" fill-rule="evenodd">
        <g id="icon/restaurante" fill="#372E2D">
            <g>
                <path d="M2.9664,19.3376 C2.7664,19.6576 2.3254,19.7776 2.0054,19.5776 L0.8844,18.8566 C0.5644,18.6566 0.4844,18.2166 0.7244,17.8956 L5.3284,11.4886 L6.4094,13.3306 L2.9664,19.3376 Z" id="Fill-1"></path>
                <path d="M12.0563,19.5381 C11.7353,19.7381 11.2553,19.6581 11.0953,19.2981 L5.5293,9.5671 L5.1683,9.7271 C4.2473,10.1671 3.2463,9.7671 2.8063,8.9251 C2.3653,8.0851 1.6853,6.7231 0.4443,4.2411 C-0.7977,1.7981 0.9243,-0.4449 1.2443,0.0761 L6.1693,7.6851 L13.4163,17.6961 C13.6163,18.1351 13.5363,18.5771 13.2173,18.7771 L12.0563,19.5381 Z" id="Fill-3"></path>
                <path d="M12.0948,6.6431 L11.7758,7.1641 C11.4158,7.6841 10.8938,8.0851 10.3748,8.2061 L9.2528,8.4451 L8.6928,9.4461 L7.7708,8.2061 L8.1318,7.7241 L7.8908,6.6031 C7.7708,6.0831 7.8908,5.4411 8.2518,4.9221 L8.5728,4.4001 L11.4158,0.1961 C11.4558,0.1151 11.5358,0.1151 11.5758,0.1561 L12.0148,0.4361 C12.0548,0.4761 12.0948,0.5561 12.0548,0.5961 L9.4538,4.8411 C9.4138,4.9221 9.4138,5.0821 9.5338,5.1221 C9.5738,5.1621 9.6538,5.2021 9.6938,5.2411 C9.7728,5.3211 9.9328,5.2811 9.9728,5.2021 C10.4948,4.4001 12.7768,1.0781 12.7768,1.0781 C12.8158,1.0381 12.8958,0.9971 12.9358,1.0381 L13.3778,1.3171 C13.4178,1.3571 13.4578,1.4371 13.4178,1.4771 L10.8138,5.7221 C10.7748,5.8021 10.7748,5.9631 10.8938,6.0031 C10.9338,6.0431 11.0138,6.0831 11.0538,6.1231 C11.1348,6.2031 11.2958,6.1631 11.3358,6.0831 C11.8548,5.2811 14.1368,1.9591 14.1368,1.9591 C14.1768,1.9191 14.2588,1.8791 14.2988,1.9191 L14.7388,2.1981 C14.7388,2.1581 14.7788,2.2381 14.7388,2.3181 L12.0948,6.6431 Z" id="Fill-6"></path>
            </g>
        </g>
    </g>
</svg>

<svg xmlns="http://www.w3.org/2000/svg" width="15" height="20" viewBox="0 0 15 20">
    <g fill="#372E2D" fill-rule="evenodd">
        <path d="M2.966 19.338c-.2.32-.64.44-.96.24l-1.122-.721a.66.66 0 0 1-.16-.961l4.604-6.407L6.41 13.33l-3.443 6.007z"/>
        <path d="M12.056 19.538c-.32.2-.8.12-.96-.24l-5.567-9.73-.36.16c-.922.44-1.923.04-2.363-.803-.44-.84-1.12-2.202-2.362-4.684-1.242-2.443.48-4.686.8-4.165l4.925 7.61 7.247 10.01c.2.44.12.881-.199 1.081l-1.16.761zM12.095 6.643l-.32.521c-.36.52-.881.921-1.4 1.042l-1.122.24-.56 1-.922-1.24.36-.482-.24-1.12c-.12-.52 0-1.163.36-1.682l.322-.522L11.416.196c.04-.08.12-.08.16-.04l.439.28c.04.04.08.12.04.16L9.454 4.841c-.04.081-.04.241.08.281.04.04.12.08.16.12.079.08.239.04.279-.04.522-.802 2.804-4.124 2.804-4.124.039-.04.119-.08.159-.04l.442.28c.04.04.08.12.04.16l-2.604 4.244c-.04.08-.04.241.08.281.04.04.12.08.16.12.08.08.242.04.282-.04.519-.802 2.8-4.124 2.8-4.124.04-.04.123-.08.163-.04l.44.28c0-.04.04.04 0 .12l-2.644 4.324z"/>
    </g>
</svg>
